X:135
T:Prince of Wales Hornpipe TS.135
T:Worster Hp,aka TS.135
T:Worcester HP,aka TS.135
M:C
L:1/8
Q:1/2=92
S:Thomas Sands’ MS,1810,Lincolnshire
R:.hornpipe
O:England;Lincolnshire
Z:vmp.Ruairidh Greig, 2011
K:Bb
dc|BFDF Bdfd|gfga b2ag|fdBd fdBd|cAFA cAFA|
BFDF Bdfd|gfga b2ag|fdBd ecAc|B2B2″minim in ms”B2:|
|:fe|dfBf dfBf|egcg egcg|dfBf dfBf|gecB BAGF|
dfBf dfBf|gfga b2 ag|fddB ceAc|B2[b2B2]”min. in ms”[b2B2]:|]

